svgs/materials/action/lock_person.svg

<svg xmlns="http://www.w3.org/2000/svg" enable-background="new 0 0 24 24" height="24" viewBox="0 0 24 24" width="24"><g><rect fill="none" height="24" width="24"/></g><g><g><path d="M18,11c0.7,0,1.37,0.1,2,0.29V10c0-1.1-0.9-2-2-2h-1V6c0-2.76-2.24-5-5-5S7,3.24,7,6v2H6c-1.1,0-2,0.9-2,2v10 c0,1.1,0.9,2,2,2h6.26C11.47,20.87,11,19.49,11,18C11,14.13,14.13,11,18,11z M8.9,6c0-1.71,1.39-3.1,3.1-3.1s3.1,1.39,3.1,3.1v2 H8.9V6z"/><path d="M18,13c-2.76,0-5,2.24-5,5s2.24,5,5,5s5-2.24,5-5S20.76,13,18,13z M18,15c0.83,0,1.5,0.67,1.5,1.5S18.83,18,18,18 s-1.5-0.67-1.5-1.5S17.17,15,18,15z M18,21c-1.03,0-1.94-0.52-2.48-1.32C16.25,19.26,17.09,19,18,19s1.75,0.26,2.48,0.68 C19.94,20.48,19.03,21,18,21z"/></g></g></svg>

<?xml version="1.0" encoding="UTF-8" standalone="no"?>
<svg
   enable-background="new 0 0 24 24"
   height="24"
   viewBox="0 0 24 24"
   width="24"
   version="1.1"
   id="svg14"
   sodipodi:docname="lock_person.svg"
   inkscape:version="1.2 (dc2aeda, 2022-05-15)"
   xmlns:inkscape="http://www.inkscape.org/namespaces/inkscape"
   xmlns:sodipodi="http://sodipodi.sourceforge.net/DTD/sodipodi-0.dtd"
   xmlns="http://www.w3.org/2000/svg"
   xmlns:svg="http://www.w3.org/2000/svg">
  <defs
     id="defs18" />
  <sodipodi:namedview
     id="namedview16"
     pagecolor="#ffffff"
     bordercolor="#000000"
     borderopacity="0.25"
     inkscape:showpageshadow="2"
     inkscape:pageopacity="0.0"
     inkscape:pagecheckerboard="0"
     inkscape:deskcolor="#d1d1d1"
     showgrid="false"
     inkscape:zoom="9.8333333"
     inkscape:cx="12.050847"
     inkscape:cy="12"
     inkscape:window-width="1309"
     inkscape:window-height="456"
     inkscape:window-x="0"
     inkscape:window-y="25"
     inkscape:window-maximized="0"
     inkscape:current-layer="svg14" />
  <path
     id="rect2"
     style="fill:none"
     d="M 0,0 H 24 V 24 H 0 Z" />
  <path
     d="m 18,11 c 0.7,0 1.37,0.1 2,0.29 V 10 C 20,8.9 19.1,8 18,8 H 17 V 6 C 17,3.24 14.76,1 12,1 9.24,1 7,3.24 7,6 V 8 H 6 C 4.9,8 4,8.9 4,10 v 10 c 0,1.1 0.9,2 2,2 h 6.26 C 11.47,20.87 11,19.49 11,18 c 0,-3.87 3.13,-7 7,-7 z M 8.9,6 c 0,-1.71 1.39,-3.1 3.1,-3.1 1.71,0 3.1,1.39 3.1,3.1 V 8 H 8.9 Z"
     id="path6" />
  <path
     d="m 18,13 c -2.76,0 -5,2.24 -5,5 0,2.76 2.24,5 5,5 2.76,0 5,-2.24 5,-5 0,-2.76 -2.24,-5 -5,-5 z m 0,2 c 0.83,0 1.5,0.67 1.5,1.5 0,0.83 -0.67,1.5 -1.5,1.5 -0.83,0 -1.5,-0.67 -1.5,-1.5 0,-0.83 0.67,-1.5 1.5,-1.5 z m 0,6 C 16.97,21 16.06,20.48 15.52,19.68 16.25,19.26 17.09,19 18,19 c 0.91,0 1.75,0.26 2.48,0.68 C 19.94,20.48 19.03,21 18,21 Z"
     id="path8" />
</svg>
